X:1
T:The Poor Auld Maid
M:4/4
L:1/8
K:C
 EF| G2 E2 ccB-c| A2A-G E2 DE| G2 E2 c2B-c| A4 A4| GG ED C2 CD| E2 A2 A2 A2|\
G-E CD E2 D2| C6||

